X:1
T:Schindler's list - Main theme
T:Schindler's list - Main theme
T:Arranged by Geert Smits 
T:Composed by John Williams 
C:John Williams
%%score { 1 | 2 }
L:1/8
Q:1/4=100
M:4/4
K:F
V:1 treble nm="Piano" snm="Pno."
V:2 bass 
V:1
 E2 D2 F4 | E4 C2 =B,2 | D6 C2 | =B,2 D2 C4- | C4 =B,4 | A,8- | A,8- | A,8- | A,4 A,4 | %9
 A2 D2 A2 D2 | B2 A2 F2 A,2 | F2 G,2 F2 G2 | A8 | A2 D2 A2 D2 | c2 B2 A2 G2 | C2 B,2 E2 G2 | %16
 B2 A2 G2 F2 | G2 B,2 G2 B,2 | A2 G2 F2 G2 | A8- | A4 A,4 | G2 B,2 G2 B,2 | A2 G2 F2 E2 | D8 | E8 | %25
 F2 G,2 F2 G,2 | A2 G2 F2 E2 | D8 | z2 z2 A4 | a2 d2 a2 d2 | b2 a2 f2 A2 | f2 G2 f2 g2 | a8 | %33
 a2 d2 a2 d2 | c'2 b2 a2 g2 | c2 B2 e2 g2 | b2 a2 g2 f2 | g2 B2 g2 B2 | a2 g2 f2 g2 | a8- | a4 A4 | %41
 g2 B2 g2 B2 | a2 g2 f2 e2 | d8 | e8 | f2 G2 f2 G2 | a2 g2 f2 e2 | d8- | d8 | z8 | [DGB]6 AG | %51
 [DGBd]4 G4 | [A,EA]3 G Adfa | [dfad']8 | z g'e'd' bged | [DGB]4 g2 G2 | [GBdg]3 f [E_A=Be]4 | %57
[K:C][K:treble] z2 ed f2 e2 | B3 c d4- | d2 cd B2 A_A | B2 A6 | z2 ed g2 f2 | B3 c d4- | %63
 d2 DE F2 FG | A2 AB _e^F/B/ e/^f/b/_e'/ | [ee']2 [Aa]2 [ee']2 [Aa]2 | [ff']2 [ee']2 [cc']2 [Ee]2 | %67
 [cc']2 [Dd]2 [cc']2 [dd']2 | [ee']8 | [ee']2 [Aa]2 [ee']2 [Aa]2 | [gg']2 [ff']2 [ee']2 [dd']2 | %71
 [Gg]2 [Ff]2 [Bb]2 [dd']2 | [ff']2 [ee']2 [dd']2 [cc']2 | [dd']2 [Ff]2 [dd']2 [Ff]2 | %74
 [ee']2 [dd']2 [cc']2 [dd']2 | [ee']4 (3dcB (3AGF | E6 c2 | d2 F2 d2 F2 | e2 d2 c2 B2 | %79
 A2 A,2 CDEA | B6 c/B/A/B/ | c2 D2 c2 D2 | e2 d2 c2 B2 | A6 E2 | ABce abc'd' | e'2 a2 e'2 a2 | %86
 f'2 e'2 c'2 e2 | g'2 f'2 e'2 d'2 | c'd'ba g/f/d/c/ (5:4:5B/A/G/F/E/ | D2 C2 B,2 F2 | d2 c2 B2 D2 | %91
 f2 e2 d2 b2 | d'2 f2 e2 ^g'2 | a'8- | a'8- | a'8 |] %96
V:2
 A,,2 E,2 A,4- | A,4 A,,2 E,2 | F,6 z2 | E,4 [D,F,A,]4- | [D,F,A,]4 [=B,,E,G,]4 | %5
!ped! A,,,2 E,,2 A,,2 C,2!ped-up! |!ped! E,8!ped-up! |!ped! A,,,2 E,,2 A,,2 ^C,2!ped-up! | E,4 z4 | %9
!p!!ped! D,4 [F,A,]4-!ped-up! |!ped! [F,A,]4 [F,A,]4!ped-up! |!ped! G,,4 [B,,D,]4!ped-up! | %12
!ped! [F,,C,]4 [A,,^C,]4!ped-up! |!ped! D,4 [F,A,]4!ped-up! |!ped! G,,4 [B,,D,]4!ped-up! | %15
!ped! C,4 [E,G,]4!ped-up! |!ped! [F,A,]4 A,,4!ped-up! |!ped! G,,4 [B,,D,]4!ped-up! | %18
!ped! [^C,E,]4 A,,4!ped-up! |!ped! D,,2 A,,2 E,2 A,,2!ped-up! |!ped! D,4 z2 z2!ped-up! | %21
!ped! G,,4 [B,,D,]4!ped-up! |!ped! A,,4 [^C,E,]4!ped-up! |!ped! G,,2 B,,2 D,2 G,2!ped-up! | %24
!ped! A,,2 ^C,2 E,2 C,2!ped-up! |!ped! G,,4 [B,,D,]4!ped-up! |!ped! A,,4 [^C,E,]4!ped-up! | %27
!ped! D,,2 A,,2 G,,2 B,,2!ped-up! | A,,4 z4 |!ped! D,4 !arpeggio![A,DF]4!ped-up! | %30
!ped! !arpeggio![DFA]4 D,4!ped-up! |!ped! G,,4 !arpeggio![G,B,D]4!ped-up! | %32
!ped! F,,2 A,,2 ^C,2 E,2!ped-up! |!ped! D,4 !arpeggio![A,DF]4!ped-up! | %34
!ped! G,,4 !arpeggio![G,B,D]4!ped-up! |!ped! C,4 !arpeggio![CEG]4!ped-up! | %36
!ped! F,,4 !arpeggio![CFA]4!ped-up! |!ped! G,,4 !arpeggio![G,B,D]4!ped-up! | %38
!ped! A,,4 !arpeggio![A,^CE]4!ped-up! |!ped! D,2 F,2 A,2 F,2!ped-up! | D4 z4 | %41
!ped! G,,4 !arpeggio![G,B,D]4!ped-up! |!ped! A,,4 !arpeggio![A,^CE]4!ped-up! | %43
!ped! G,,2 B,,2 D,2 G,2!ped-up! |!ped! A,,2 ^C,2 E,2 C,2!ped-up! | %45
!ped! G,,4 !arpeggio![G,B,D]4!ped-up! |!ped! A,,4 !arpeggio![A,^CE]4!ped-up! | %47
!ped! D,2 A,2 G,2 B,2!ped-up! |!ped! A,8!ped-up! | z2!mf! A,G, B,2 A,2 | E,3 F, G,4- | %51
 G,2 F,G, E,2 D,^C, | E,2 D,6 | z2 A,G, C2 B,2 | E,3 F, G,4- | G,2 G,,A,, B,,2 B,,C, | %56
 D,2 E,F, _A,4 |[K:C][K:bass]!p!!ped! A,2 [CE]4 [CE]2!ped-up! |!ped! A,2 [DF]4 [DF]2!ped-up! | %59
!ped! A,2 [DF]4 [B,D]2!ped-up! |!ped! A,2 [CE]4 [CE]2!ped-up! |!ped! A,4 [E,A,CE]4!ped-up! | %62
!ped! !arpeggio![F,A,DF]8!ped-up! |!ped! D,4 [F,A,D]4!ped-up! | %64
!ped! [A,DF]4 !arpeggio![^F,B,_E^F]4!ped-up! |!ped! [A,,,A,,]2 C,2 [E,A,C]2 C,2!ped-up! | %66
!ped! [A,,,A,,]2 C,2 [E,A,C]2 A,,2!ped-up! |!ped! D,,2 A,,2 [D,F,A,]2 A,,2!ped-up! | %68
!ped! C,,2 [C,E,G,C]2 E,,2 [E,^G,B,E]2!ped-up! |!ped! A,,2 C,2 [E,A,C]2 C,2!ped-up! | %70
!ped! D,,2 A,,2 [D,F,A,]2 A,,2!ped-up! |!ped! G,,2 B,,2 [D,G,B,]2 B,,2!ped-up! | %72
!ped! C,,2 G,,2 [C,E,G,]2 C,,2!ped-up! |!ped! D,,2 A,,2 [D,F,A,]2 A,,2!ped-up! | %74
!ped! E,,2 ^G,,2 [B,,E,^G,]2 G,,2!ped-up! |!ped! A,,2 C,2 E,2 A,2!ped-up! |!ped! C6 z2!ped-up! | %77
!ped! D,,2 A,,2 [D,F,A,]2 A,,2!ped-up! |!ped! E,,2 ^G,,2 [B,,E,^G,]2 G,,2!ped-up! | %79
!ped! D,,2 F,,2 A,,2 D,2!ped-up! |!ped! E,,2 ^G,,2 B,,2 E,2!ped-up! | %81
!ped! D,,2 A,,2 [D,F,A,]2 A,,2!ped-up! |!ped! E,,2 ^G,,2 [B,,E,^G,]2 G,,2!ped-up! | %83
!ped! [A,,C,E,]6 z2!ped-up! |!ped! A,2 C2 E2 A2!ped-up! |!ped! [Ace]8!ped-up! | %86
!ped! [EAc]8!ped-up! |!ped! !arpeggio![DFAd]8-!ped-up! |!ped! [DFAd]8!ped-up! |!ped! D,8!ped-up! | %90
!ped! F,8!ped-up! |!ped! B,,8!ped-up! |!ped! D,4 B,,4!ped-up! |!ped! A,,2 E,2 A,2 C2!ped-up! | %94
!ped! E2 A2 c2 e2!ped-up! |!ped! a8!ped-up! |] %96

